icons/battery.svg

<svg width="24" height="24" viewBox="0 0 24 24" fill="none" xmlns="http://www.w3.org/2000/svg">
<path fill-rule="evenodd" clip-rule="evenodd" d="M1 6C1 5.44772 1.44772 5 2 5H19C19.5523 5 20 5.44772 20 6V18C20 18.5523 19.5523 19 19 19H2C1.44772 19 1 18.5523 1 18V6ZM3 7V17H18V7H3ZM22 9C22.5523 9 23 9.44772 23 10V14C23 14.5523 22.5523 15 22 15C21.4477 15 21 14.5523 21 14V10C21 9.44772 21.4477 9 22 9Z" fill="black"/>
</svg>

<svg
  width="24"
  height="24"
  viewBox="0 0 24 24"
  xmlns="http://www.w3.org/2000/svg"
>
  <path
    fill-rule="evenodd"
    clip-rule="evenodd"
    d="M1 6a1 1 0 0 1 1-1h17a1 1 0 0 1 1 1v12a1 1 0 0 1-1 1H2a1 1 0 0 1-1-1V6zm2 1v10h15V7H3zm19 2a1 1 0 0 1 1 1v4a1 1 0 1 1-2 0v-4a1 1 0 0 1 1-1z"
  />
</svg>
